dist/svg/colortext.svg

<!-- Generated by Trend Micro Style Portal -->
<svg version="1.1" xmlns="http://www.w3.org/2000/svg" width="16" height="16" viewBox="0 0 16 16">
  <title>colortext</title>
  <path fill="rgb(34,34,34)" d="M11.718 10.216l-3.043-8.216h-1.389l-2.992 8.229-0.794 0.123v0.648h2.849v-0.648l-0.834-0.097-0.135-0.168 0.794-2.242h2.888l0.794 2.255-0.096 0.168-0.834 0.084v0.648h3.573v-0.648zM6.426 7.099l1.15-3.279 1.182 3.279zM2 14h12v-2h-12z"></path>
</svg>

<svg width="16" height="16" viewBox="0 0 16 16" fill="rgb(34, 34, 34)" xmlns="http://www.w3.org/2000/svg"><title>colortext</title><path d="M11.718 10.216L8.675 2H7.286L4.294 10.229L3.5 10.352V11H6.349V10.352L5.515 10.255L5.38 10.087L6.174 7.845H9.062L9.856 10.1L9.76 10.268L8.926 10.352V11H12.499V10.352L11.718 10.216ZM6.426 7.099L7.576 3.82L8.758 7.099H6.426ZM2 14H14V12H2V14Z" fill="rgb(34, 34, 34)" fill-opacity="1.00"/></svg>
